icon-themes/breeze_dark_svg/cmd/lc_signaturelinedialog.svg

<svg viewBox="0 0 24 24" xmlns="http://www.w3.org/2000/svg"><path d="m5 4v16 .001953h1 6v-1.001953h-6v-14h8v3 1h4v2h1v-1.5917969-1.40625-.0097656l-3.992188-3.9921875-.007812.0097656v-.0097656h-1-8zm14 8-1 1-5 5v2h2v-.03125l1-.96875 4-4 1-1zm-.28125 1.6875.5625.59375-4.96875 5-.59375-.59375zm-8.71875.3125-2 1v1l2-1h1v3h1v-3-1z" fill="#eff0f1"/></svg>

<svg viewBox="0 0 24 24" id="svg1" sodipodi:docname="lc_signaturelinedialog.svg" inkscape:version="1.4.3 (0d15f75042, 2025-12-25)" xmlns:inkscape="http://www.inkscape.org/namespaces/inkscape" xmlns:sodipodi="http://sodipodi.sourceforge.net/DTD/sodipodi-0.dtd" xmlns="http://www.w3.org/2000/svg" xmlns:svg="http://www.w3.org/2000/svg"><defs id="defs1"/><sodipodi:namedview id="namedview1" pagecolor="#000000" bordercolor="#000000" borderopacity=".25" inkscape:showpageshadow="2" inkscape:pageopacity="0" inkscape:pagecheckerboard="0" inkscape:deskcolor="#d1d1d1" showgrid="true" inkscape:zoom="36.080224" inkscape:cx="10.282641" inkscape:cy="12.541496" inkscape:window-width="2560" inkscape:window-height="1354" inkscape:window-x="0" inkscape:window-y="0" inkscape:window-maximized="1" inkscape:current-layer="svg1"><inkscape:grid id="grid1" units="px" originx="0" originy="0" spacingx="1" spacingy="1" empcolor="#0099e5" empopacity=".30196078" color="#0099e5" opacity=".14901961" empspacing="5" enabled="true" visible="true"/></sodipodi:namedview><path d="m5 4v16 .002h1 6V19H6V5h8v3 1h4v2h1V9.408203 8.0019531 7.9921831L15.007812 4 15 4.0097656v-.00977H14 6zm14 8-1 1-5 5v2h2v-.03125L16 19l4-4 1-1zm-.28125 1.6875.5625.59375-4.96875 5-.59375-.59375zM10 14 8 15v1l2-1h1v3h1v-3-1z" fill="#232629" id="path1-5" style="fill:#f0f1f2;fill-opacity:1"/></svg>
